X:148
T:Chinese Festival THO1.148, The
M:C|
L:1/8
Z:vmp. Peter Dunk 2012.from a transcription by Fynn Titford-Mock 2006
B:Thompson's Compleat Collection of 200 Favourite Country Dances Vol.I,1758
Q:1/2=80
K:F
f2 (3cde f2 (3cde|fbag Tg2f2|f2 (3cde f2 (3cBA|BdcB TB2 A2:|
|:g2 (3cde gbag|afbg Tfe f2|c2 TBA BdcB|AGFE F2f2:|



